X:53
T:Sherlock's
Z: id:dc-hornpipe-48
M:C|
L:1/8
K:G Major
(3DEF|GA (3GFE DG,B,D|GFGA Bdgf|edcB (3ABA GA|BAGF E2(3DEF|!
GA (3GFE DG,B,D|GFGA Bdgf|edcB (3ABA GA|B2G2 G2:|!
Bc|d^cde dBGF|GBd^c dgfg|ef (3gfe dBGB|(3cBA BG A2 (3DEF|!
GA (3GFE DG,B,D|GFGA Bdgf|edcB (3ABA GA|B2G2 G2:|!

